public/images/flags/US.svg

<svg width="21" height="15" viewBox="0 0 21 15" fill="none" xmlns="http://www.w3.org/2000/svg">
<path d="M19 15H2C1.46957 15 0.96086 14.7893 0.585787 14.4142C0.210714 14.0391 0 13.5304 0 13V6H8V0H19C19.5304 0 20.0391 0.210712 20.4142 0.585785C20.7893 0.960858 21 1.46957 21 2V13C21 13.5304 20.7893 14.0391 20.4142 14.4142C20.0391 14.7893 19.5304 15 19 15Z" fill="#E25950"/>
<path d="M0 11H21V12H0V11ZM0 9H21V10H0V9ZM0 7H21V8H0V7ZM8 5H21V6H8V5ZM8 3H21V4H8V3ZM8 1H20.723C20.9023 1.30291 20.9979 1.64802 21 2H8V1ZM20.723 14H0.277C0.097679 13.6971 0.00208218 13.352 0 13H21C20.9979 13.352 20.9023 13.6971 20.723 14Z" fill="#F6F9FC"/>
<path opacity="0.2" d="M19 15H2C1.46957 15 0.96086 14.7893 0.585787 14.4142C0.210714 14.0391 0 13.5304 0 13V6H1V13C1 13.2652 1.10536 13.5196 1.29289 13.7071C1.48043 13.8946 1.73478 14 2 14H19C19.2652 14 19.5196 13.8946 19.7071 13.7071C19.8946 13.5196 20 13.2652 20 13V2C20 1.73478 19.8946 1.48043 19.7071 1.29289C19.5196 1.10536 19.2652 1 19 1H8V0H19C19.5304 0 20.0391 0.210712 20.4142 0.585785C20.7893 0.960858 21 1.46957 21 2V13C21 13.5304 20.7893 14.0391 20.4142 14.4142C20.0391 14.7893 19.5304 15 19 15Z" fill="#E25950"/>
<path d="M0 7V2C0 1.46957 0.210714 0.960858 0.585787 0.585785C0.96086 0.210712 1.46957 0 2 0H9V7H0Z" fill="#43458B"/>
<path d="M7.73 2.40801C7.58993 2.41339 7.45146 2.37678 7.33235 2.30287C7.21325 2.22897 7.11896 2.12115 7.06159 1.99326C7.00421 1.86537 6.98638 1.72326 7.01038 1.58516C7.03438 1.44706 7.09911 1.31928 7.19627 1.21825C7.29342 1.11721 7.41856 1.04753 7.55562 1.01814C7.69267 0.988759 7.83538 1.00101 7.96542 1.05333C8.09545 1.10565 8.20688 1.19565 8.28539 1.31177C8.36389 1.42789 8.4059 1.56484 8.406 1.705C8.40613 1.88687 8.33579 2.06171 8.20973 2.1928C8.08368 2.32389 7.91173 2.40102 7.73 2.40801ZM7.433 3.705C7.4328 3.8442 7.39135 3.98022 7.31387 4.09586C7.23639 4.2115 7.12637 4.30156 6.99772 4.35469C6.86906 4.40782 6.72754 4.42163 6.59105 4.39435C6.45455 4.36707 6.3292 4.29994 6.23084 4.20145C6.13249 4.10295 6.06554 3.97751 6.03845 3.84098C6.01137 3.70444 6.02537 3.56294 6.07869 3.43436C6.132 3.30578 6.22223 3.19589 6.33798 3.11858C6.45373 3.04127 6.58981 3 6.729 3C6.91571 3 7.09478 3.07417 7.2268 3.20619C7.35883 3.33822 7.433 3.51728 7.433 3.704V3.705ZM5.73 2.40801C5.58974 2.41339 5.45107 2.37672 5.3318 2.30271C5.21253 2.22869 5.11811 2.12072 5.06066 1.99265C5.00321 1.86458 4.98536 1.72225 5.0094 1.58396C5.03344 1.44566 5.09827 1.31771 5.19556 1.21654C5.29286 1.11536 5.41817 1.04559 5.55542 1.01616C5.69267 0.986736 5.83558 0.999011 5.9658 1.05141C6.09602 1.10381 6.2076 1.19393 6.28622 1.31021C6.36484 1.4265 6.4069 1.56363 6.407 1.704C6.40713 1.88612 6.33668 2.06122 6.21044 2.19249C6.0842 2.32377 5.91199 2.40102 5.73 2.40801ZM5.433 3.705C5.4328 3.8442 5.39135 3.98022 5.31387 4.09586C5.23639 4.2115 5.12637 4.30156 4.99772 4.35469C4.86906 4.40782 4.72754 4.42163 4.59104 4.39435C4.45455 4.36707 4.3292 4.29994 4.23084 4.20145C4.13249 4.10295 4.06554 3.97751 4.03846 3.84098C4.01137 3.70444 4.02537 3.56294 4.07869 3.43436C4.132 3.30578 4.22223 3.19589 4.33798 3.11858C4.45373 3.04127 4.58981 3 4.729 3C4.91571 3 5.09478 3.07417 5.2268 3.20619C5.35883 3.33822 5.433 3.51728 5.433 3.704V3.705ZM3.73 2.40801C3.58974 2.41339 3.45107 2.37672 3.3318 2.30271C3.21253 2.22869 3.11811 2.12072 3.06066 1.99265C3.00321 1.86458 2.98536 1.72225 3.0094 1.58396C3.03344 1.44566 3.09827 1.31771 3.19556 1.21654C3.29286 1.11536 3.41817 1.04559 3.55542 1.01616C3.69267 0.986736 3.83558 0.999011 3.9658 1.05141C4.09602 1.10381 4.2076 1.19393 4.28622 1.31021C4.36484 1.4265 4.4069 1.56363 4.407 1.704C4.40713 1.88612 4.33668 2.06122 4.21044 2.19249C4.0842 2.32377 3.91199 2.40102 3.73 2.40801ZM3.433 3.705C3.4328 3.8442 3.39135 3.98022 3.31387 4.09586C3.23639 4.2115 3.12637 4.30156 2.99772 4.35469C2.86906 4.40782 2.72754 4.42163 2.59104 4.39435C2.45455 4.36707 2.3292 4.29994 2.23084 4.20145C2.13249 4.10295 2.06554 3.97751 2.03846 3.84098C2.01137 3.70444 2.02537 3.56294 2.07869 3.43436C2.132 3.30578 2.22223 3.19589 2.33798 3.11858C2.45373 3.04127 2.58981 3 2.729 3C2.91571 3 3.09478 3.07417 3.2268 3.20619C3.35883 3.33822 3.433 3.51728 3.433 3.704V3.705ZM1.73 2.40801C1.58993 2.41339 1.45146 2.37678 1.33235 2.30287C1.21325 2.22897 1.11896 2.12115 1.06159 1.99326C1.00421 1.86537 0.986382 1.72326 1.01038 1.58516C1.03438 1.44706 1.09911 1.31928 1.19627 1.21825C1.29342 1.11721 1.41856 1.04753 1.55562 1.01814C1.69267 0.988759 1.83538 1.00101 1.96542 1.05333C2.09545 1.10565 2.20688 1.19565 2.28539 1.31177C2.36389 1.42789 2.4059 1.56484 2.406 1.705C2.40613 1.88687 2.33579 2.06171 2.20973 2.1928C2.08368 2.32389 1.91173 2.40102 1.73 2.40801ZM1.73 5C1.87027 4.99482 2.00889 5.03168 2.12806 5.10587C2.24722 5.18005 2.34149 5.28817 2.39875 5.41632C2.45602 5.54448 2.47366 5.68682 2.44943 5.82508C2.42519 5.96333 2.36017 6.0912 2.26273 6.19223C2.16529 6.29327 2.03987 6.36287 1.90258 6.39209C1.76529 6.42132 1.62239 6.40884 1.49225 6.35625C1.3621 6.30366 1.25065 6.21337 1.1722 6.09697C1.09376 5.98057 1.0519 5.84337 1.052 5.703C1.05213 5.52088 1.12284 5.3459 1.24927 5.21482C1.37569 5.08373 1.548 5.00673 1.73 5ZM3.73 5C3.87027 4.99482 4.00889 5.03168 4.12806 5.10587C4.24722 5.18005 4.34149 5.28817 4.39875 5.41632C4.45602 5.54448 4.47366 5.68682 4.44943 5.82508C4.42519 5.96333 4.36017 6.0912 4.26273 6.19223C4.16529 6.29327 4.03987 6.36287 3.90258 6.39209C3.76529 6.42132 3.62239 6.40884 3.49225 6.35625C3.3621 6.30366 3.25065 6.21337 3.1722 6.09697C3.09376 5.98057 3.0519 5.84337 3.052 5.703C3.05213 5.52088 3.12284 5.3459 3.24927 5.21482C3.37569 5.08373 3.548 5.00673 3.73 5ZM5.73 5C5.87027 4.99482 6.00889 5.03168 6.12806 5.10587C6.24722 5.18005 6.34149 5.28817 6.39875 5.41632C6.45602 5.54448 6.47366 5.68682 6.44943 5.82508C6.42519 5.96333 6.36017 6.0912 6.26273 6.19223C6.16529 6.29327 6.03987 6.36287 5.90258 6.39209C5.76529 6.42132 5.62239 6.40884 5.49225 6.35625C5.3621 6.30366 5.25065 6.21337 5.1722 6.09697C5.09376 5.98057 5.0519 5.84337 5.052 5.703C5.05213 5.52088 5.12284 5.3459 5.24927 5.21482C5.37569 5.08373 5.548 5.00673 5.73 5ZM7.73 5C7.87027 4.99482 8.00889 5.03168 8.12806 5.10587C8.24722 5.18005 8.34149 5.28817 8.39875 5.41632C8.45602 5.54448 8.47366 5.68682 8.44943 5.82508C8.42519 5.96333 8.36017 6.0912 8.26273 6.19223C8.16529 6.29327 8.03987 6.36287 7.90258 6.39209C7.76529 6.42132 7.62239 6.40884 7.49225 6.35625C7.3621 6.30366 7.25065 6.21337 7.1722 6.09697C7.09376 5.98057 7.0519 5.84337 7.052 5.703C7.05213 5.52088 7.12284 5.3459 7.24927 5.21482C7.37569 5.08373 7.548 5.00673 7.73 5Z" fill="white"/>
<path opacity="0.5" d="M9 4.21001C8.90076 4.30593 8.77547 4.3705 8.63977 4.3957C8.50407 4.42089 8.36396 4.40558 8.2369 4.35167C8.10984 4.29777 8.00146 4.20766 7.92527 4.09258C7.84908 3.97749 7.80845 3.84252 7.80845 3.7045C7.80845 3.56648 7.84908 3.43153 7.92527 3.31644C8.00146 3.20136 8.10984 3.11123 8.2369 3.05733C8.36396 3.00343 8.50407 2.98812 8.63977 3.01331C8.77547 3.0385 8.90076 3.10309 9 3.19901V4.21001ZM0 3.23501C0.0942073 3.12851 0.218731 3.05337 0.356863 3.01967C0.494995 2.98598 0.640129 2.99533 0.772793 3.04648C0.905457 3.09763 1.0193 3.18813 1.09906 3.30584C1.17882 3.42354 1.22067 3.56283 1.219 3.70501C1.219 3.89145 1.14493 4.07027 1.0131 4.20211C0.881258 4.33395 0.702447 4.40801 0.516 4.40801C0.41837 4.40749 0.321948 4.38638 0.233033 4.34606C0.144118 4.30574 0.0647107 4.24711 0 4.174V3.23501Z" fill="white"/>
</svg>

<svg width="21" height="15" fill="none" xmlns="http://www.w3.org/2000/svg"><path d="M19 15H2a2 2 0 0 1-2-2V6h8V0h11a2 2 0 0 1 2 2v11a2 2 0 0 1-2 2z" fill="#E25950"/><path d="M0 11h21v1H0v-1zm0-2h21v1H0V9zm0-2h21v1H0V7zm8-2h13v1H8V5zm0-2h13v1H8V3zm0-2h12.723c.18.303.275.648.277 1H8V1zm12.723 13H.277A1.986 1.986 0 0 1 0 13h21a1.986 1.986 0 0 1-.277 1z" fill="#F6F9FC"/><path opacity=".2" d="M19 15H2a2 2 0 0 1-2-2V6h1v7a1 1 0 0 0 1 1h17a1 1 0 0 0 1-1V2a1 1 0 0 0-1-1H8V0h11a2 2 0 0 1 2 2v11a2 2 0 0 1-2 2z" fill="#E25950"/><path d="M0 7V2a2 2 0 0 1 2-2h7v7H0z" fill="#43458B"/><path d="M7.73 2.408a.703.703 0 1 1-.054-1.405.703.703 0 0 1 .054 1.405zm-.297 1.297a.704.704 0 1 1 0-.001v.001zM5.73 2.408a.704.704 0 1 1-.054-1.407.704.704 0 0 1 .054 1.407zm-.297 1.297a.704.704 0 1 1 0-.001v.001zM3.73 2.408a.704.704 0 1 1-.054-1.407.704.704 0 0 1 .054 1.407zm-.297 1.297a.704.704 0 1 1 0-.001v.001zM1.73 2.408a.703.703 0 1 1-.054-1.405.703.703 0 0 1 .054 1.405zM1.73 5a.704.704 0 1 1 .052 1.407A.704.704 0 0 1 1.73 5zm2 0a.704.704 0 1 1 .052 1.407A.704.704 0 0 1 3.73 5zm2 0a.704.704 0 1 1 .052 1.407A.704.704 0 0 1 5.73 5zm2 0a.704.704 0 1 1 .052 1.407A.704.704 0 0 1 7.73 5z" fill="#fff"/><path opacity=".5" d="M9 4.21a.703.703 0 1 1 0-1.011V4.21zm-9-.975a.697.697 0 0 1 1.219.47.703.703 0 0 1-.986.641A.694.694 0 0 1 0 4.174v-.939z" fill="#fff"/></svg>
